!!!COM: Robert Schumann
!!!CNT: Deutsch
!!!TXO: Deutsch
!!!OTL: "Einsamkeit"
!!!LYR: Lenau
!!!OPR: Sechs Gedichte von N. Lenau und Requiem
!!!OPS: Op. 90
!!!ONM: No. 5
!!!ENC: Leigh VanHandel
!!!YOR: Schumann Lieder - Max Friedlaender, ed.,
!!!YOR: New York: C. F. Peters, Vol. 3
!!!ODT: 1850/
**kern	**silbe
*staff1	*
*clefG2	*
*k[b-e-a-d-g-c-]	*
*met(C)	*
*M4/4	*
*MM[96]	*
=1	=1
1r	.
=2	=2
1r	.
=3	=3
2r	.
{4.cc-	{Wild
16dd-	ver-
16cc-	|
=4	=4
4b-	-wachs'-
4a-	-ne
4g-	dunk-
4f	-le
=5	=5
4a-	Fich-
4g-}	-ten,}
2r	.
=6	=6
2r	.
{4.f	{lei-
16a-	-se
16g-	|
=7	=7
4f	klagt
4e-	die
4dn	Quel-
4e-	-le
=8	=8
4f}	fort;}
4r	.
2r	.
=9	=9
*k[f#c#g#d#a#]	*
{[2f#	{Herz,
8f#]	|
8f#	das
8f#	ist
8f#	der
=10	=10
4.b	rech-
8a#	-te
2g#}	Ort}
=11	=11
4r	.
{8f#	{fu2r
8f#	dein
8b	schmerz-
8a#	-lich-
8g#	-es
8f#	Ver-
=12	=12
4f#	-zich-
4e#}	-ten!}
2r	.
=13	=13
2r	.
{4.f#	{Grau-
16an	-er
16gn	|
=14	=14
4f#	Vo-
4a#	-gel
4cc#	in
4ee	dem
=15	=15
4ee	Zwei-
4ddn}	-gen,}
2r	.
=16	=16
2r	.
{4cc#	{ein-
4cc#	-sam
=17	=17
4.b	dei-
8b	-ne
4a#	Kla-
4b	-ge
=18	=18
2cc#}	singt,}
2r	.
=19	=19
2r	.
{4f#	{und
4f#	auf
=20	=20
*k[b-e-a-]	*
2g	dei-
2a-	-ne
=21	=21
4.cc-	Fra-
8b-	-ge
2b-	bringt
=22	=22
4.ee-	Ant-
8ee-	-wort
4cc-	nicht
4a-	des
=23	=23
4.cc-	Wal-
8b-	-des
4b-	Schwei-
4b-}	-gen.}
=24	=24
2r	.
{4b-	{Wenn's
4b-	auch
=25	=25
2.cc-	im-
4cc-	-mer
=26	=26
4.cc-	Schwei-
8b-	-gen
4b-	blie-
4b-}	-be,}
=27	=27
2r	.
{4dd	{kla-
4cc	-ge,
=28	=28
4b-	kla-
4f	-ge
2g}	fort;}
=29	=29
2r	.
4r	.
{4f	{es
=30	=30
2b-	weht,
4b-	der
4b-	dich
=31	=31
4.cc-	ho2-
8cc-	-ret
4cc-	und
4cc-	ver-
=32	=32
2b-}	-steht,}
2r	.
=33	=33
{4.dd	{stil-
8dd	-le
4cc	hier
4b-	der
=34	=34
[1ee-	Geist
=35	=35
2ee-]	|
2dd	der
=36	=36
2cc	Lie-
2b-}	-be.}
=37	=37
1r	.
=38	=38
1r	.
=39	=39
{2.b-	{Nicht
4cc	ver-
=40	=40
4.b-	-lo-
8a-	|
2a-}	-ren}
=41	=41
2r	.
{6g	{hier
6b-	|
6a-	im
=42	=42
2g	Moo-
2f}	-se,}
=43	=43
{2.b-	{Herz,
4cc	dein
=44	=44
2b-	heim-
2a-	-lich
=45	=45
4g	Wei-
2b-	|
4a-	-nen
=46	=46
2f}	geht,}
2r	.
=47	=47
{2.g	{dei-
4g	-ne
=48	=48
2cc	Lie-
2bn	-be
=49	=49
2.cc	Gott
4cc	ver-
=50	=50
2dd}	-steht,}
2r	.
=51	=51
2r	.
{4a-	{dei-
4a-	-ne
=52	=52
2g-	tie-
2g-	-fe,
=53	=53
2.dd-	hoff-
4cc-	-nungs-
=54	=54
2b-	-lo-
2a-}	-se!}
==	==
*-	*-
